X:1
T:Title
%%score { ( 1 3 ) | 2 }
L:1/8
Q:1/4=95
M:6/8
K:C
V:1 treble nm="Grand Piano"
V:3 treble 
V:2 bass 
V:1
 [Ec]2 [EG] [FA]2 [Ec] | [GB]2 [FA] .[EG]3 | [Ec]2 [EG] [FA]2 [Gc] | [^FB]2 [FA] .G3 | e2 c d2 G | %5
w: John~Pyke~Hullah * * *|||||
 c2 A B3 | ABc G2 c | e2 d [Ec]3 | [EG]2 [FA] [G_B]2 [Bd] | [Ac]2 [EG] [FA]3 | %10
w: |||||
 [^FA]2 [GB] [Ac]2 [ce] | [Bd]2 [^FA] B3 | e2 c d2 G | c2 A B3 | ABc G2 c | e3 [Fd]3 | %16
w: ||||||
[M:7/4] [Ec]6 z2 z2 z4 |[M:3/4] [Fc]6 | [Ec]6 |] %19
w: |||
V:2
 [C,G,]2 [C,C] [C,C]2 [C,C] | [C,C]2 [C,C] .[C,C]3 | [C,G,]2 [C,C] [F,C]2 [E,C] | %3
 [D,C]2 [D,C] .[G,B,]3 | [CEG]2 [CE] [G,B,F]2 [G,B,F] | [A,CE]2[K:bass] [A,C] [E,^G,D]3 | %6
 [F,A,C]2 [F,A,C] [E,C]2[K:treble] [A,CE] | [G,B,F]2 [G,F][K:bass] [C,G,]3 | %8
 [C,C]2 [C,C] [C,C]2 [C,C] | [C,C]2 [C,C] [F,C]3 | [D,D]2 [D,D] [D,D]2 [D,D] | %11
 [D,D]2 [D,D][K:treble] [G,DG]3 | [CEG]2 [CE] [G,B,F]2 [G,B,F] | [A,CE]2 [A,C] [E,^G,D]3 | %14
 [F,A,C]2 [F,A,C] [E,C]2[K:treble] [A,C^F] | .[G,CG]3[K:bass] .[G,,A,]3 |[M:7/4] [C,G,]6 z2 z2 z4 | %17
[M:3/4] [F,A,]6 | [C,G,]6 |] %19
V:3
 x6 | x6 | x6 | x6 | x6 | x6 | x6 | x6 | x6 | x6 | x6 | x6 | x6 | x6 | x6 | z2 G, z2 G, | %16
[M:7/4] x14 |[M:3/4] x6 | x6 |] %19

